brandFactory_export/2.Regular/Intranet_2Regular.svg

<?xml version="1.0" encoding="UTF-8"?>
<svg width="24px" height="24px" viewBox="0 0 24 24" version="1.1" xmlns="http://www.w3.org/2000/svg" xmlns:xlink="http://www.w3.org/1999/xlink">
    <title>2.Regular/Intranet_2Regular</title>
    <g id="Symbols" stroke="none" stroke-width="1" fill="none" fill-rule="evenodd">
        <g id="2.Regular/Intranet_2Regular" fill="#5CB615" fill-rule="nonzero">
            <path d="M20.8403361,19.405042 C21.5596639,19.405042 22.1445378,19.9731092 22.1445378,20.6756303 C22.1445378,21.3680672 21.5630252,21.9361345 20.8403361,21.9361345 C20.1277311,21.9361345 19.5462185,21.3680672 19.5462185,20.6756303 C19.5462185,19.9731092 20.1277311,19.405042 20.8403361,19.405042 Z M7.51596639,17.2504202 C9.09579832,16.8941176 10.5579832,16.7596639 11.3680672,16.7092437 L11.3680672,22.0638655 C9.74789916,21.6403361 8.34621849,19.8218487 7.51596639,17.2504202 L7.51596639,17.2504202 Z M3.4789916,18.8067227 C4.26890756,18.3058824 5.17647059,17.9294118 6.09411765,17.6302521 C6.6487395,19.3142857 7.42857143,20.7327731 8.37647059,21.7714286 C6.25210084,21.2638655 4.62184874,20.2722689 3.4789916,18.8067227 Z M1.51260504,12.6252101 L5.25714286,12.6252101 C5.30756303,13.8957983 5.46554622,15.1092437 5.7210084,16.2352941 C4.67563025,16.5613445 3.62689076,16.9983193 2.69915966,17.5764706 C1.99663866,16.2285714 1.58991597,14.5714286 1.51260504,12.6252101 L1.51260504,12.6252101 Z M2.67563025,6.06722689 C3.62352941,6.65546218 4.67226891,7.08907563 5.70756303,7.41512605 C5.45210084,8.59159664 5.28403361,9.85210084 5.24369748,11.1798319 L1.50252101,11.1798319 C1.5697479,9.16638655 1.96638655,7.46218487 2.67563025,6.06722689 Z M8.38655462,1.8487395 C7.42857143,2.88739496 6.6487395,4.31260504 6.09411765,6.02016807 C5.17647059,5.7210084 4.26890756,5.34453782 3.45882353,4.83361345 C4.60168067,3.3512605 6.24201681,2.35966387 8.38655462,1.8487395 Z M11.3680672,1.54957983 L11.3680672,6.93445378 C10.5579832,6.88739496 9.10588235,6.75966387 7.51596639,6.40672269 C8.34621849,3.81512605 9.73781513,1.98319328 11.3680672,1.54957983 Z M6.72605042,11.1798319 C6.76638655,9.99663866 6.90420168,8.85042017 7.12941176,7.79831933 C8.89747899,8.21176471 10.497479,8.3394958 11.3647059,8.37647059 L11.3647059,11.1798319 L6.72605042,11.1798319 Z M11.3680672,12.6252101 L11.3680672,15.2638655 C10.497479,15.3142857 8.89747899,15.4554622 7.14285714,15.8521008 C6.91428571,14.8504202 6.77647059,13.7613445 6.7394958,12.6252101 L11.3680672,12.6252101 Z M20.8403361,1.87563025 C21.5596639,1.87563025 22.1445378,2.44369748 22.1445378,3.13613445 C22.1445378,3.83865546 21.5630252,4.40672269 20.8403361,4.40672269 C20.1277311,4.40672269 19.5462185,3.83865546 19.5462185,3.13613445 C19.5462185,2.44705882 20.1277311,1.87563025 20.8403361,1.87563025 Z M20.8403361,10.6722689 C21.5596639,10.6722689 22.1445378,11.2403361 22.1445378,11.9428571 C22.1445378,12.6453782 21.5630252,13.2134454 20.8403361,13.2134454 C20.1277311,13.2134454 19.5462185,12.6453782 19.5462185,11.9428571 C19.5462185,11.2403361 20.1277311,10.6722689 20.8403361,10.6722689 Z M18.1714286,12.6655462 C18.497479,13.8117647 19.5630252,14.6588235 20.8369748,14.6588235 C22.3764706,14.6588235 23.6201681,13.4352941 23.6201681,11.9428571 C23.6201681,10.4504202 22.3764706,9.22689076 20.8369748,9.22689076 C19.5630252,9.22689076 18.497479,10.0739496 18.1714286,11.2201681 L12.8470588,11.2201681 L12.8470588,9.89915966 L16.2756303,9.89915966 C16.6789916,9.89915966 17.005042,9.57983193 17.0151261,9.18655462 L17.0655462,3.85882353 L18.1714286,3.85882353 C18.497479,5.00504202 19.5630252,5.85210084 20.8369748,5.85210084 C22.3764706,5.85210084 23.6201681,4.63865546 23.6201681,3.13613445 C23.6201681,1.64369748 22.3764706,0.430252101 20.8369748,0.430252101 C19.5630252,0.430252101 18.497479,1.27731092 18.1714286,2.41344538 L16.3361345,2.41344538 C15.9327731,2.41344538 15.5966387,2.73277311 15.5966387,3.13613445 L15.5394958,8.45378151 L12.8537815,8.45378151 L12.8537815,0.722689076 C12.8537815,0.319327731 12.5277311,0 12.1142857,0 C4.19495798,0 0.00672268908,4.08403361 0.00672268908,11.805042 L0.00672268908,11.9226891 C0.0268907563,14.8033613 0.628571429,17.1630252 1.78487395,18.9915966 C1.80504202,19.0285714 1.81512605,19.0789916 1.84537815,19.1058824 C1.86554622,19.1260504 1.88571429,19.1260504 1.89579832,19.1428571 C3.84201681,22.0907563 7.27731092,23.6201681 12.1176471,23.6201681 C12.5344538,23.6201681 12.8571429,23.2941176 12.8571429,22.897479 L12.8571429,15.3613445 L15.5428571,15.3613445 L15.6,20.6857143 C15.6,21.0789916 15.9361345,21.3983193 16.3394958,21.3983193 L18.1781513,21.3983193 C18.5042017,22.5445378 19.5697479,23.3815126 20.8436975,23.3815126 C22.3831933,23.3815126 23.6268908,22.1680672 23.6268908,20.6756303 C23.6268908,19.1831933 22.3831933,17.9596639 20.8436975,17.9596639 C19.5697479,17.9596639 18.5042017,18.8067227 18.1781513,19.9529412 L17.0722689,19.9529412 L17.0218487,14.6285714 C17.0117647,14.2352941 16.6857143,13.9159664 16.2823529,13.9159664 L12.8537815,13.9159664 L12.8537815,12.6655462 L18.1714286,12.6655462 Z" id="Intranet_2Regular"></path>
        </g>
    </g>
</svg>

<svg width="24" height="24" viewBox="0 0 24 24" xmlns="http://www.w3.org/2000/svg"><path d="M20.84 19.405c.72 0 1.305.568 1.305 1.27 0 .693-.582 1.261-1.305 1.261-.712 0-1.294-.568-1.294-1.26 0-.703.582-1.271 1.294-1.271zM7.516 17.25c1.58-.356 3.042-.49 3.852-.54v5.354c-1.62-.424-3.022-2.242-3.852-4.814zm-4.037 1.557c.79-.501 1.697-.878 2.615-1.177.555 1.684 1.335 3.103 2.282 4.141-2.124-.507-3.754-1.499-4.897-2.964zm-1.966-6.182h3.744c.05 1.27.209 2.484.464 3.61-1.045.326-2.094.763-3.022 1.341-.702-1.347-1.11-3.005-1.186-4.95zm1.163-6.558c.948.588 1.996 1.022 3.032 1.348a20.703 20.703 0 00-.464 3.765H1.503c.067-2.014.463-3.718 1.173-5.113zm5.71-4.218C7.43 2.887 6.65 4.313 6.095 6.02c-.918-.299-1.825-.675-2.635-1.186C4.602 3.35 6.242 2.36 8.387 1.849zm2.982-.3v5.385a24.961 24.961 0 01-3.852-.527c.83-2.592 2.222-4.424 3.852-4.857zm-4.642 9.63c.04-1.182.178-2.329.403-3.38 1.768.413 3.368.54 4.236.577v2.804H6.726zm4.642 1.446v2.639c-.87.05-2.47.191-4.225.588a17.075 17.075 0 01-.404-3.227h4.63zm9.472-10.75c.72 0 1.305.569 1.305 1.261 0 .703-.582 1.27-1.305 1.27a1.283 1.283 0 01-1.294-1.27c0-.689.582-1.26 1.294-1.26zm0 8.797c.72 0 1.305.568 1.305 1.27 0 .703-.582 1.271-1.305 1.271a1.283 1.283 0 01-1.294-1.27c0-.703.582-1.27 1.294-1.27zm-2.669 1.994a2.764 2.764 0 002.666 1.993c1.54 0 2.783-1.224 2.783-2.716 0-1.493-1.244-2.716-2.783-2.716-1.274 0-2.34.847-2.666 1.993h-5.324V9.9h3.429c.403 0 .729-.32.74-.713l.05-5.328h1.105a2.764 2.764 0 002.666 1.993c1.54 0 2.783-1.213 2.783-2.716 0-1.492-1.244-2.706-2.783-2.706-1.274 0-2.34.847-2.666 1.983h-1.835c-.403 0-.74.32-.74.723l-.057 5.318h-2.685V.723a.725.725 0 00-.74-.723C4.195 0 .007 4.084.007 11.805v.118c.02 2.88.622 5.24 1.778 7.069.02.037.03.087.06.114.02.02.04.02.05.037 1.947 2.948 5.382 4.477 10.223 4.477.416 0 .74-.326.74-.723v-7.536h2.685l.057 5.325c0 .393.336.712.74.712h1.838a2.755 2.755 0 002.666 1.984c1.54 0 2.783-1.214 2.783-2.706 0-1.493-1.244-2.716-2.783-2.716-1.274 0-2.34.847-2.666 1.993h-1.106l-.05-5.324a.736.736 0 00-.74-.713h-3.428v-1.25h5.317z" fill="#5CB615" fill-rule="nonzero"/></svg>
